images/bacon.svg

<svg height="250" viewBox="0 0 250 250" width="250" xmlns="http://www.w3.org/2000/svg" xmlns:xlink="http://www.w3.org/1999/xlink"><linearGradient id="a"><stop offset="0" stop-color="#fac565"/><stop offset="1" stop-color="#5f3400"/></linearGradient><linearGradient id="b" gradientUnits="userSpaceOnUse" x1="78.1249995" x2="78.1249995" xlink:href="#a" y1="64.3554448125" y2="126.6601791875"/><linearGradient id="c" gradientUnits="userSpaceOnUse" x1="91.32383153125" x2="77.16367528125" y1="122.5043041875" y2="196.9183198125"><stop offset="0" stop-color="#ffdda1"/><stop offset="1" stop-color="#5f3400"/></linearGradient><linearGradient id="d" gradientUnits="userSpaceOnUse" x1="104.101562" x2="104.101562" xlink:href="#a" y1="76.660108875" y2="128.417921375"/><path d="m241.992188 125.195312c0-32.421874-11.328126-59.765624-34.375-82.421874-23.046876-23.046876-50.78125-34.765626-82.8125-34.765626-32.421876 0-59.765626 11.71875-82.03125 34.765626-23.046876 22.65625-34.765626 50-34.765626 82.421874 0 32.03125 11.71875 59.765626 34.765626 82.421876 22.65625 23.046874 50 34.375 82.03125 34.375s59.375-11.328126 82.8125-34.375c23.046874-22.65625 34.375-50.390626 34.375-82.421876m-41.796876-75c20.3125 20.3125 30.46875 45.3125 30.46875 74.609376 0 28.90625-10.15625 53.90625-30.46875 74.609374-21.09375 20.703126-46.09375 30.859376-75 30.859376-29.296874 0-53.90625-10.15625-74.21875-30.859376h-.390624c-20.3125-20.3125-30.859376-45.3125-30.859376-74.21875 0-29.296874 10.546876-54.296874 30.859376-74.609374l.390624-.390626c20.3125-20.703124 44.921876-30.859374 74.21875-30.859374 29.296876 0 53.90625 10.546874 75 30.859374zm0 0" fill="#c48417"/><path d="m230.273438 125.195312c0-29.296874-10.15625-54.296874-30.46875-74.609374-20.703126-20.703126-45.703126-30.859376-75-30.859376-29.296876 0-53.90625 10.546876-74.21875 30.859376l-.390626.390624c-19.921874 19.921876-30.46875 44.921876-30.46875 74.21875 0 28.90625 10.546876 53.90625 30.859376 74.609376h.390624c20.3125 20.703124 44.921876 30.859374 74.21875 30.859374 28.90625 0 53.90625-10.15625 75-30.859374 19.921876-20.703126 30.078126-45.703126 30.078126-74.609376m-45.703126-35.15625v2.34375c0 6.25-1.953124 11.71875-5.859374 16.40625-1.171876 1.953126-3.125 3.515626-5.46875 4.6875-1.171876 1.171876-3.125 1.953126-5.078126 2.734376 3.125.78125 5.859376 2.34375 8.59375 4.296874 4.296876 2.734376 7.8125 6.25 10.15625 10.546876 2.34375 3.515624 3.515626 7.8125 3.90625 12.109374v2.34375c0 6.25-1.171874 11.71875-3.515624 15.625-1.953126 5.078126-4.6875 8.59375-8.59375 11.71875-3.90625 2.34375-8.59375 4.296876-13.671876 5.859376-5.078124 1.5625-10.546874 2.34375-16.40625 2.34375h-77.34375v-117.1875h39.84375v.390624h34.765626c8.59375 0 15.625 1.171876 21.484374 3.125 5.859376 2.34375 10.15625 5.46875 12.890626 9.765626 2.34375 3.125 3.515624 7.8125 4.296874 12.890624m-15.625 46.09375c-2.34375-2.34375-5.46875-3.90625-8.984374-5.46875-3.90625-1.171874-8.203126-1.5625-12.5-1.5625h-36.71875v33.59375h37.5c4.6875 0 8.984374-.78125 12.5-1.953124 3.515624-1.171876 6.25-3.125 8.203124-5.859376 2.34375-2.734374 3.515626-5.859374 3.515626-9.375 0-.78125 0-1.5625-.390626-2.34375-.390624-2.734374-1.171874-5.078124-3.125-7.03125m-2.734374-42.578124c-.78125-3.90625-2.734376-7.03125-5.859376-8.984376-3.90625-2.34375-8.984374-3.90625-15.625-3.90625h-33.59375v30.859376h35.9375c3.515626 0 6.640626-.78125 9.765626-1.953126 3.125-1.171874 5.46875-3.125 7.03125-5.46875 1.5625-2.734374 2.734374-5.46875 2.734374-7.8125-.390624-1.171874-.390624-1.953124-.390624-2.734374zm0 0" fill="#fff"/><path d="m183.789062 92.773438c0-.78125 0-1.5625 0-2.34375-.390624-5.078126-1.953124-9.765626-4.296874-13.671876-3.125-4.296874-7.421876-7.421874-12.890626-9.765624-5.46875-1.953126-12.5-3.125-21.484374-3.125h-34.765626v17.1875h33.59375c6.25 0 11.71875 1.171874 15.625 3.90625 3.125 1.953124 5.078126 5.078124 5.859376 8.984374v2.734376c0 2.734374-.78125 5.46875-2.734376 7.8125-1.5625 2.34375-3.90625 4.296874-7.03125 5.46875-2.734374 1.5625-5.859374 1.953124-9.765624 1.953124h-35.9375v17.578126h36.71875c4.296874 0 8.59375.390624 12.5 1.5625 3.515624 1.171874 6.640624 3.125 8.984374 5.46875 1.953126 1.953124 2.734376 4.296874 3.125 7.421874.390626.78125.390626 1.5625.390626 2.34375 0 3.515626-1.171876 6.640626-3.515626 9.375-1.953124 2.734376-4.6875 4.6875-8.203124 5.859376-3.90625 1.5625-8.203126 1.953124-12.5 1.953124h-37.5v17.578126h37.5c5.859374 0 11.328124-.78125 16.40625-2.34375 5.078124-1.171876 9.765624-3.125 13.671874-5.859376 3.90625-2.734374 6.640626-6.25 8.59375-10.9375 2.34375-4.296874 3.515626-9.765624 3.515626-15.625 0-.78125 0-1.5625 0-2.34375-.390626-4.6875-1.5625-8.59375-3.90625-12.109374-2.34375-4.296876-5.859376-7.8125-10.15625-10.546876-2.734376-1.953124-5.46875-3.125-8.59375-4.296874 1.953124-.78125 3.90625-1.5625 5.078124-2.734376 2.34375-1.171874 3.90625-2.734374 5.46875-4.6875 4.296876-5.078124 6.25-10.546874 6.25-16.796874zm0 0"/><path d="m71.289062 63.476562v117.1875h13.671876v-117.1875zm0 0" fill="url(#b)"/><path d="m97.460938 63.476562h-12.5v117.1875h12.890624zm0 0" fill="url(#c)"/><path d="m110.742188 63.867188-13.28125-.390626v117.1875h13.28125zm0 0" fill="url(#d)"/></svg>

<!-- Generator: Adobe Illustrator 27.0.0, SVG Export Plug-In . SVG Version: 6.00 Build 0)  -->
<svg xmlns="http://www.w3.org/2000/svg" xmlns:xlink="http://www.w3.org/1999/xlink" width="250px" height="250px" viewBox="0 0 250 250" version="1.1">
<defs>
<linearGradient id="linear0" gradientUnits="userSpaceOnUse" x1="20.75" y1="451.024994" x2="20.75" y2="466.975006" gradientTransform="matrix(3.90625,0,0,3.90625,-2.929688,-1697.460938)">
<stop offset="0" style="stop-color:rgb(98.039216%,77.254903%,39.607844%);stop-opacity:1;"/>
<stop offset="1" style="stop-color:rgb(37.254903%,20.392157%,0%);stop-opacity:1;"/>
</linearGradient>
<linearGradient id="linear1" gradientUnits="userSpaceOnUse" x1="24.128901" y1="465.911102" x2="20.503901" y2="484.96109" gradientTransform="matrix(3.90625,0,0,3.90625,-2.929688,-1697.460938)">
<stop offset="0" style="stop-color:rgb(100%,86.666667%,63.137257%);stop-opacity:1;"/>
<stop offset="1" style="stop-color:rgb(37.254903%,20.392157%,0%);stop-opacity:1;"/>
</linearGradient>
<linearGradient id="linear2" gradientUnits="userSpaceOnUse" x1="27.4" y1="454.174988" x2="27.4" y2="467.424988" gradientTransform="matrix(3.90625,0,0,3.90625,-2.929688,-1697.460938)">
<stop offset="0" style="stop-color:rgb(98.039216%,77.254903%,39.607844%);stop-opacity:1;"/>
<stop offset="1" style="stop-color:rgb(37.254903%,20.392157%,0%);stop-opacity:1;"/>
</linearGradient>
</defs>
<g id="surface1">
<path style=" stroke:none;fill-rule:nonzero;fill:rgb(76.862746%,51.764709%,9.019608%);fill-opacity:1;" d="M 241.992188 125.195312 C 241.992188 92.773438 230.664062 65.429688 207.617188 42.773438 C 184.570312 19.726562 156.835938 8.007812 124.804688 8.007812 C 92.382812 8.007812 65.039062 19.726562 42.773438 42.773438 C 19.726562 65.429688 8.007812 92.773438 8.007812 125.195312 C 8.007812 157.226562 19.726562 184.960938 42.773438 207.617188 C 65.429688 230.664062 92.773438 241.992188 124.804688 241.992188 C 156.835938 241.992188 184.179688 230.664062 207.617188 207.617188 C 230.664062 184.960938 241.992188 157.226562 241.992188 125.195312 M 200.195312 50.195312 C 220.507812 70.507812 230.664062 95.507812 230.664062 124.804688 C 230.664062 153.710938 220.507812 178.710938 200.195312 199.414062 C 179.101562 220.117188 154.101562 230.273438 125.195312 230.273438 C 95.898438 230.273438 71.289062 220.117188 50.976562 199.414062 L 50.585938 199.414062 C 30.273438 179.101562 19.726562 154.101562 19.726562 125.195312 C 19.726562 95.898438 30.273438 70.898438 50.585938 50.585938 L 50.976562 50.195312 C 71.289062 29.492188 95.898438 19.335938 125.195312 19.335938 C 154.492188 19.335938 179.101562 29.882812 200.195312 50.195312 Z M 200.195312 50.195312 "/>
<path style=" stroke:none;fill-rule:nonzero;fill:rgb(100%,100%,100%);fill-opacity:1;" d="M 230.273438 125.195312 C 230.273438 95.898438 220.117188 70.898438 199.804688 50.585938 C 179.101562 29.882812 154.101562 19.726562 124.804688 19.726562 C 95.507812 19.726562 70.898438 30.273438 50.585938 50.585938 L 50.195312 50.976562 C 30.273438 70.898438 19.726562 95.898438 19.726562 125.195312 C 19.726562 154.101562 30.273438 179.101562 50.585938 199.804688 L 50.976562 199.804688 C 71.289062 220.507812 95.898438 230.664062 125.195312 230.664062 C 154.101562 230.664062 179.101562 220.507812 200.195312 199.804688 C 220.117188 179.101562 230.273438 154.101562 230.273438 125.195312 M 184.570312 90.039062 C 184.570312 90.820312 184.570312 91.601562 184.570312 92.382812 C 184.570312 98.632812 182.617188 104.101562 178.710938 108.789062 C 177.539062 110.742188 175.585938 112.304688 173.242188 113.476562 C 172.070312 114.648438 170.117188 115.429688 168.164062 116.210938 C 171.289062 116.992188 174.023438 118.554688 176.757812 120.507812 C 181.054688 123.242188 184.570312 126.757812 186.914062 131.054688 C 189.257812 134.570312 190.429688 138.867188 190.820312 143.164062 C 190.820312 143.945312 190.820312 144.726562 190.820312 145.507812 C 190.820312 151.757812 189.648438 157.226562 187.304688 161.132812 C 185.351562 166.210938 182.617188 169.726562 178.710938 172.851562 C 174.804688 175.195312 170.117188 177.148438 165.039062 178.710938 C 159.960938 180.273438 154.492188 181.054688 148.632812 181.054688 L 71.289062 181.054688 L 71.289062 63.867188 L 111.132812 63.867188 L 111.132812 64.257812 L 145.898438 64.257812 C 154.492188 64.257812 161.523438 65.429688 167.382812 67.382812 C 173.242188 69.726562 177.539062 72.851562 180.273438 77.148438 C 182.617188 80.273438 183.789062 84.960938 184.570312 90.039062 M 168.945312 136.132812 C 166.601562 133.789062 163.476562 132.226562 159.960938 130.664062 C 156.054688 129.492188 151.757812 129.101562 147.460938 129.101562 L 110.742188 129.101562 L 110.742188 162.695312 L 148.242188 162.695312 C 152.929688 162.695312 157.226562 161.914062 160.742188 160.742188 C 164.257812 159.570312 166.992188 157.617188 168.945312 154.882812 C 171.289062 152.148438 172.460938 149.023438 172.460938 145.507812 C 172.460938 144.726562 172.460938 143.945312 172.070312 143.164062 C 171.679688 140.429688 170.898438 138.085938 168.945312 136.132812 M 166.210938 93.554688 C 165.429688 89.648438 163.476562 86.523438 160.351562 84.570312 C 156.445312 82.226562 151.367188 80.664062 144.726562 80.664062 L 111.132812 80.664062 L 111.132812 111.523438 L 147.070312 111.523438 C 150.585938 111.523438 153.710938 110.742188 156.835938 109.570312 C 159.960938 108.398438 162.304688 106.445312 163.867188 104.101562 C 165.429688 101.367188 166.601562 98.632812 166.601562 96.289062 C 166.210938 95.117188 166.210938 94.335938 166.210938 93.554688 Z M 166.210938 93.554688 "/>
<path style=" stroke:none;fill-rule:nonzero;fill:rgb(0%,0%,0%);fill-opacity:1;" d="M 183.789062 92.773438 C 183.789062 91.992188 183.789062 91.210938 183.789062 90.429688 C 183.398438 85.351562 181.835938 80.664062 179.492188 76.757812 C 176.367188 72.460938 172.070312 69.335938 166.601562 66.992188 C 161.132812 65.039062 154.101562 63.867188 145.117188 63.867188 L 110.351562 63.867188 L 110.351562 81.054688 L 143.945312 81.054688 C 150.195312 81.054688 155.664062 82.226562 159.570312 84.960938 C 162.695312 86.914062 164.648438 90.039062 165.429688 93.945312 C 165.429688 94.335938 165.429688 95.507812 165.429688 96.679688 C 165.429688 99.414062 164.648438 102.148438 162.695312 104.492188 C 161.132812 106.835938 158.789062 108.789062 155.664062 109.960938 C 152.929688 111.523438 149.804688 111.914062 145.898438 111.914062 L 109.960938 111.914062 L 109.960938 129.492188 L 146.679688 129.492188 C 150.976562 129.492188 155.273438 129.882812 159.179688 131.054688 C 162.695312 132.226562 165.820312 134.179688 168.164062 136.523438 C 170.117188 138.476562 170.898438 140.820312 171.289062 143.945312 C 171.679688 144.726562 171.679688 145.507812 171.679688 146.289062 C 171.679688 149.804688 170.507812 152.929688 168.164062 155.664062 C 166.210938 158.398438 163.476562 160.351562 159.960938 161.523438 C 156.054688 163.085938 151.757812 163.476562 147.460938 163.476562 L 109.960938 163.476562 L 109.960938 181.054688 L 147.460938 181.054688 C 153.320312 181.054688 158.789062 180.273438 163.867188 178.710938 C 168.945312 177.539062 173.632812 175.585938 177.539062 172.851562 C 181.445312 170.117188 184.179688 166.601562 186.132812 161.914062 C 188.476562 157.617188 189.648438 152.148438 189.648438 146.289062 C 189.648438 145.507812 189.648438 144.726562 189.648438 143.945312 C 189.257812 139.257812 188.085938 135.351562 185.742188 131.835938 C 183.398438 127.539062 179.882812 124.023438 175.585938 121.289062 C 172.851562 119.335938 170.117188 118.164062 166.992188 116.992188 C 168.945312 116.210938 170.898438 115.429688 172.070312 114.257812 C 174.414062 113.085938 175.976562 111.523438 177.539062 109.570312 C 181.835938 104.492188 183.789062 99.023438 183.789062 92.773438 Z M 183.789062 92.773438 "/>
<path style=" stroke:none;fill-rule:nonzero;fill:url(#linear0);" d="M 71.289062 63.476562 L 71.289062 180.664062 L 84.960938 180.664062 L 84.960938 63.476562 Z M 71.289062 63.476562 "/>
<path style=" stroke:none;fill-rule:nonzero;fill:url(#linear1);" d="M 97.460938 63.476562 L 84.960938 63.476562 L 84.960938 180.664062 L 97.851562 180.664062 Z M 97.460938 63.476562 "/>
<path style=" stroke:none;fill-rule:nonzero;fill:url(#linear2);" d="M 110.742188 63.867188 L 97.460938 63.476562 L 97.460938 180.664062 L 110.742188 180.664062 Z M 110.742188 63.867188 "/>
</g>
</svg>
